images/check_mark.svg

<svg width="11" height="8" viewBox="0 0 11 8" fill="none" xmlns="http://www.w3.org/2000/svg">
<path d="M10.4767 1.2702L9.56727 0.380195C9.44466 0.260195 9.29139 0.200195 9.11769 0.200195C8.94398 0.200195 8.79071 0.260195 8.6681 0.380195L4.29487 4.6602L2.34327 2.7402C2.22066 2.6202 2.06739 2.5602 1.89369 2.5602C1.71998 2.5602 1.56671 2.6202 1.4441 2.7402L0.534715 3.6302C0.401883 3.7502 0.340576 3.9002 0.340576 4.0702C0.340576 4.2402 0.401883 4.3902 0.524497 4.5102L2.9359 6.8702L3.84529 7.7602C3.9679 7.8802 4.12117 7.9402 4.29487 7.9402C4.46858 7.9402 4.62184 7.8802 4.74446 7.7602L5.65384 6.8702L10.4767 2.1502C10.5993 2.0302 10.6606 1.8802 10.6606 1.7102C10.6606 1.5402 10.5993 1.3902 10.4767 1.2702Z" fill="white"/>
</svg>

<svg width="11" height="8" fill="none" xmlns="http://www.w3.org/2000/svg"><path d="m10.477 1.27-.91-.89a.624.624 0 0 0-.45-.18.624.624 0 0 0-.449.18L4.295 4.66 2.343 2.74a.624.624 0 0 0-.45-.18.624.624 0 0 0-.449.18l-.91.89a.57.57 0 0 0-.193.44c0 .17.06.32.183.44l2.412 2.36.91.89c.122.12.275.18.449.18s.327-.06.45-.18l.909-.89 4.823-4.72a.597.597 0 0 0 .184-.44c0-.17-.062-.32-.184-.44Z" fill="#fff"/></svg>
